X: 1036
T: The Thatcher
R:double jig
N:"collected by Fielding"
B:O'Neill's 1036
Z:Transcribed by henrik.norbeck@mailbox.swipnet.se
M:6/8
L:1/8
K:A
(g/f/)|eAB c2 d|edc BAG|eAB c2 d|eaa eaa|
eAB c2 d|edc BAG|ABA gfe|dcB A2:|
d|eaa efg|dec BAG|eaa efg|fed efg|
eaa efg|dec BAG|ABA gfe|dcB A2:|


